lib/flags/s/PK.svg

<svg xmlns="http://www.w3.org/2000/svg" fill="none" viewBox="0 0 16 12"><mask id="PK_svg__a" width="16" height="12" x="0" y="0" mask-type="alpha" maskUnits="userSpaceOnUse"><path fill="#fff" d="M0 0H16V12H0z"/></mask><g fill-rule="evenodd" clip-rule="evenodd" mask="url(#PK_svg__a)"><path fill="#2F8D00" d="M4 0H16V12H4V0Z"/><path fill="#F7FCFF" d="M0 0H4V12H0V0Z"/><path fill="#F1F9FF" d="M11.2147 7.65309C11.2147 7.65309 8.98185 8.23524 7.20952 7.04777C5.43719 5.86029 6.32811 3.12386 6.32811 3.12386C5.40364 3.25839 3.95181 6.63131 6.29202 8.32304C8.63222 10.0148 10.8741 8.38859 11.2147 7.65309ZM8.73692 4.43322L7.55117 5.01304L8.80208 5.23584L8.97093 6.4586L9.67947 5.4172L11.0737 5.51121L9.98167 4.69676L10.563 3.60858L9.47585 4.10651L8.66824 3.34717L8.73692 4.43322Z"/></g></svg>

<svg xmlns="http://www.w3.org/2000/svg" fill="none" viewBox="0 0 16 12"><mask id="PK_svg__a" width="16" height="12" x="0" y="0" maskUnits="userSpaceOnUse"><path fill="#fff" d="M0 0h16v12H0z"/></mask><g fill-rule="evenodd" clip-rule="evenodd" mask="url(#PK_svg__a)"><path fill="#2F8D00" d="M4 0h12v12H4V0z"/><path fill="#F7FCFF" d="M0 0h4v12H0V0z"/><path fill="#F1F9FF" d="M11.215 7.653s-2.233.582-4.006-.605c-1.772-1.188-.88-3.924-.88-3.924-.925.134-2.377 3.507-.037 5.199 2.34 1.692 4.582.066 4.923-.67zm-2.478-3.22l-1.186.58 1.251.223.169 1.223.708-1.042 1.395.094-1.092-.814.581-1.088-1.087.498-.808-.76.069 1.086z"/></g></svg>
